X: 238
T:Green Grows The Rushes O'. JC.243
M:C
L:1/8
Q:140
S:John Clare,Poet,Helpstone (1793-1864)
R:Strathspey
O:England162
A:Northamptonshire
N:
Z:vmp.P. Headford
K:G
"key of D in MS"B/A/|G>G B>A BGGB|AA e>d eA A>B|\
c>c ce d>c BG|A>c B>A GEE2||!
dg g>f gdd2|ea a>g ae e>f|g>a gf/e/ d>B G>B|A>c B/c/B/A/ GEE2|]
W:Song text exists. See Deacon.|
